Desktop/project_createx/public/images/decor/lines3.svg

<svg width="468" height="469" viewBox="0 0 468 469" fill="none" xmlns="http://www.w3.org/2000/svg">
<g opacity="0.4">
<path d="M83.5082 337.458C57.8868 327.045 41.2207 314.102 33.3799 298.681C25.5515 283.283 26.4668 265.304 36.2551 244.676C55.9112 203.253 76.0913 167.043 96.7941 136.043C117.433 105.14 150.352 82.9273 195.612 69.4365C240.787 55.9714 286.088 64.5102 331.551 95.1257C354.286 110.435 370.552 127.38 380.387 145.95C390.218 164.514 393.635 184.729 390.632 206.612C384.599 250.565 378.14 288.19 371.255 319.49C364.396 350.674 346.255 377.626 316.785 400.346C302.087 411.677 286.425 417.438 269.789 417.657C253.146 417.876 235.487 412.549 216.803 401.633C179.299 379.721 134.867 358.33 83.5082 337.458Z" stroke="#00F0B5"/>
<path d="M111.88 317.918C91.0802 309.461 77.5663 298.961 71.2087 286.469C64.8635 274.002 65.5929 259.44 73.5261 242.717C89.4721 209.103 105.845 179.722 122.643 154.571C139.376 129.516 166.079 111.507 202.813 100.577C239.461 89.6717 276.221 96.6096 313.131 121.464C331.589 133.892 344.792 147.642 352.775 162.702C360.755 177.755 363.534 194.145 361.105 211.888C356.221 247.562 350.989 278.098 345.41 303.5C339.856 328.784 325.149 350.637 301.24 369.058C289.323 378.24 276.626 382.902 263.139 383.074C249.646 383.246 235.321 378.923 220.156 370.062C189.689 352.26 153.596 334.879 111.88 317.918Z" stroke="#00F0B5"/>
<path d="M129.328 305.947C111.5 298.699 99.9317 289.705 94.4918 279.016C89.0643 268.352 89.6839 255.891 96.4796 241.565C110.151 212.746 124.187 187.557 138.588 165.996C152.924 144.53 175.804 129.098 207.289 119.729C238.688 110.386 270.185 116.328 301.818 137.629C317.637 148.28 328.948 160.061 335.786 172.961C342.621 185.855 345.001 199.892 342.92 215.092C338.733 245.678 334.248 271.858 329.464 293.635C324.707 315.296 312.107 334.019 291.618 349.805C281.411 357.669 270.539 361.661 258.992 361.808C247.439 361.955 235.17 358.254 222.175 350.661C196.048 335.395 165.098 320.491 129.328 305.947Z" stroke="#00F0B5"/>
</g>
</svg>

<svg xmlns="http://www.w3.org/2000/svg" width="468" height="469" fill="none"><g stroke="#00F0B5" opacity=".4"><path d="M83.508 337.458c-25.621-10.413-42.287-23.356-50.128-38.777-7.829-15.398-6.913-33.377 2.875-54.005q29.484-62.134 60.54-108.633c20.638-30.903 53.557-53.116 98.817-66.607 45.175-13.465 90.476-4.926 135.939 25.69 22.735 15.309 39.001 32.254 48.836 50.824 9.831 18.564 13.248 38.779 10.245 60.662q-9.05 65.929-19.377 112.878c-6.859 31.184-25 58.136-54.47 80.856-14.698 11.331-30.36 17.092-46.996 17.311-16.643.219-34.302-5.108-52.986-16.024q-56.256-32.868-133.295-64.175Z"/><path d="M111.88 317.918c-20.8-8.457-34.314-18.957-40.671-31.449-6.346-12.467-5.616-27.029 2.317-43.752q23.92-50.42 49.117-88.146c16.733-25.055 43.436-43.064 80.17-53.994 36.648-10.905 73.408-3.967 110.318 20.887 18.458 12.428 31.661 26.178 39.644 41.238 7.98 15.053 10.759 31.443 8.33 49.186q-7.326 53.51-15.695 91.612c-5.554 25.284-20.261 47.137-44.17 65.558-11.917 9.182-24.614 13.844-38.101 14.016-13.493.172-27.818-4.151-42.983-13.012q-45.701-26.703-108.276-52.144Z"/><path d="M129.328 305.947c-17.828-7.248-29.396-16.242-34.836-26.931-5.428-10.664-4.808-23.125 1.988-37.451q20.506-43.228 42.108-75.569c14.336-21.466 37.216-36.898 68.701-46.267 31.399-9.343 62.896-3.401 94.529 17.9 15.819 10.651 27.13 22.432 33.968 35.332 6.835 12.894 9.215 26.931 7.134 42.131q-6.28 45.878-13.456 78.543c-4.757 21.661-17.357 40.384-37.846 56.17-10.207 7.864-21.079 11.856-32.626 12.003-11.553.147-23.822-3.554-36.817-11.147q-39.191-22.899-92.847-44.714Z"/></g></svg>
